img/about-me/icons/professional-info-icon.svg

<svg width="24" height="25" viewBox="0 0 24 25" fill="none" xmlns="http://www.w3.org/2000/svg">
<g opacity="0.4">
<path d="M3 3.65186H21C21.2652 3.65186 21.5196 3.75721 21.7071 3.94475C21.8946 4.13228 22 4.38664 22 4.65186V20.6519C22 20.9171 21.8946 21.1714 21.7071 21.359C21.5196 21.5465 21.2652 21.6519 21 21.6519H3C2.73478 21.6519 2.48043 21.5465 2.29289 21.359C2.10536 21.1714 2 20.9171 2 20.6519V4.65186C2 4.38664 2.10536 4.13228 2.29289 3.94475C2.48043 3.75721 2.73478 3.65186 3 3.65186ZM12 15.6519V17.6519H18V15.6519H12ZM8.414 12.6519L5.586 15.4799L7 16.8949L11.243 12.6519L7 8.40886L5.586 9.82386L8.414 12.6519Z" fill="#607B96"/>
</g>
</svg>

<svg width="24" height="25" fill="none" xmlns="http://www.w3.org/2000/svg"><path d="M3 3.652h18a1 1 0 011 1v16a1 1 0 01-1 1H3a1 1 0 01-1-1v-16a1 1 0 011-1zm9 12v2h6v-2h-6zm-3.586-3L5.586 15.48 7 16.895l4.243-4.243L7 8.409 5.586 9.824l2.828 2.828z" fill="#607B96" opacity=".4"/></svg>
